contributed-vectors/smart_launcher.svg

<svg xmlns="http://www.w3.org/2000/svg" xml:space="preserve" style="fill-rule:evenodd;clip-rule:evenodd;stroke-linejoin:round;stroke-miterlimit:2" viewBox="0 0 192 192"><path d="M164.5 21.5c0-5.519-4.481-10-10-10h-133c-5.519 0-10 4.481-10 10v133c0 5.519 4.481 10 10 10h133c5.519 0 10-4.481 10-10v-133Z" style="fill:#fff" transform="translate(8 8)"/><path d="m71.871 96.303 3.11 15.677c6.253 10.942 17.126 6.163 17.126 6.163s24.035 2.08 37.51 2.08c13.448 0 3.67 15.806 3.644 15.861-8.257 12.438-27.129 12.161-27.129 12.161H75.833a17.588 17.588 0 0 1-15.261-8.844 680285.42 680285.42 0 0 1-20.003-34.912 5.398 5.398 0 0 1 4.657-8.082l26.645-.104Z" style="fill:#728dbe" transform="rotate(-30 145.05 13.562) scale(.63862)"/><path d="M74.47 82.007 126.262 96c6.264 9.573 10.794 18.888 10.794 26.349 0 5.766-1.48 10.248-3.795 13.735.026-.055 6.449-13.735-6.999-13.735H90.5s-9.266.573-15.519-10.369l-.511-29.973Z" style="fill:url(#a)" transform="rotate(-30 145.05 13.562) scale(.63862)"/><path d="M96 122.357c-22.626.353-15.752-2.702-29.93-26.357-27.944-46.62 11.622-51.772 13.217-51.772h34.422a22.027 22.027 0 0 1 18.951 10.799l15.952 26.925A9.306 9.306 0 0 1 140.606 96H96c-19.6 0-21.468 26.274 0 26.357Z" style="fill:#9abeff" transform="rotate(-30 145.05 13.562) scale(.63862)"/><defs><linearGradient id="a" x1="0" x2="1" y1="0" y2="0" gradientTransform="rotate(-179.828 68.614 56.766) scale(59.91457)" gradientUnits="userSpaceOnUse"><stop offset="0" style="stop-color:#728dbe;stop-opacity:1"/><stop offset="1" style="stop-color:#9abeff;stop-opacity:1"/></linearGradient></defs></svg>

<?xml version="1.0" encoding="UTF-8" standalone="no"?>
<!DOCTYPE svg PUBLIC "-//W3C//DTD SVG 1.1//EN" "http://www.w3.org/Graphics/SVG/1.1/DTD/svg11.dtd">
<svg width="100%" height="100%" viewBox="0 0 192 192" version="1.1" xmlns="http://www.w3.org/2000/svg" xmlns:xlink="http://www.w3.org/1999/xlink" xml:space="preserve" xmlns:serif="http://www.serif.com/" style="fill-rule:evenodd;clip-rule:evenodd;stroke-linejoin:round;stroke-miterlimit:2;">
    <g transform="matrix(1,0,0,1,8,8)">
        <g>
            <path d="M164.5,21.5C164.5,15.981 160.019,11.5 154.5,11.5L21.5,11.5C15.981,11.5 11.5,15.981 11.5,21.5L11.5,154.5C11.5,160.019 15.981,164.5 21.5,164.5L154.5,164.5C160.019,164.5 164.5,160.019 164.5,154.5L164.5,21.5Z" style="fill:white;"/>
        </g>
    </g>
    <g transform="matrix(0.553062,-0.31931,0.31931,0.553062,12.652,74.3417)">
        <path d="M71.871,96.303L74.981,111.98C81.234,122.922 92.107,118.143 92.107,118.143C92.107,118.143 116.142,120.223 129.617,120.223C143.065,120.223 133.287,136.029 133.261,136.084C125.004,148.522 106.132,148.245 106.132,148.245C106.132,148.245 87.828,148.245 75.833,148.245C69.528,148.245 63.706,144.871 60.572,139.401C54.959,129.605 45.988,113.948 40.569,104.489C39.614,102.823 39.617,100.774 40.576,99.11C41.535,97.446 43.305,96.417 45.226,96.407L71.871,96.303Z" style="fill:rgb(114,141,190);"/>
        <path d="M74.47,82.007L126.262,96C132.526,105.573 137.056,114.888 137.056,122.349C137.056,128.115 135.576,132.597 133.261,136.084C133.287,136.029 139.71,122.349 126.262,122.349L90.5,122.349C90.5,122.349 81.234,122.922 74.981,111.98L74.47,82.007Z" style="fill:url(#_Linear1);"/>
        <path d="M96,122.357C73.374,122.71 80.248,119.655 66.07,96C38.126,49.38 77.692,44.228 79.287,44.228L113.709,44.228C121.49,44.228 128.694,48.333 132.66,55.027C137.29,62.843 143.59,73.476 148.612,81.952C150.316,84.828 150.346,88.397 148.691,91.302C147.035,94.207 143.949,96 140.606,96C125.083,96 103.084,96 96,96C76.4,96 74.532,122.274 96,122.357Z" style="fill:rgb(154,190,255);"/>
    </g>
    <defs>
        <linearGradient id="_Linear1" x1="0" y1="0" x2="1" y2="0" gradientUnits="userSpaceOnUse" gradientTransform="matrix(-59.9143,-0.180278,0.180278,-59.9143,137.056,113.738)"><stop offset="0" style="stop-color:rgb(114,141,190);stop-opacity:1"/><stop offset="1" style="stop-color:rgb(154,190,255);stop-opacity:1"/></linearGradient>
    </defs>
</svg>
